svg/fluentui-system-icons/ic_fluent_real_estate_24_filled.svg

<svg width="24" height="24" viewBox="0 0 24 24" fill="none" xmlns="http://www.w3.org/2000/svg">
<path d="M3 4C3 3.44771 3.44772 3 4 3C4.55228 3 5 3.44772 5 4H21C21.5523 4 22 4.44772 22 5C22 5.55228 21.5523 6 21 6H5V21.5C5 21.7761 4.77614 22 4.5 22H3.5C3.22386 22 3 21.7761 3 21.5V4ZM6 7.75C6 7.33579 6.33579 7 6.75 7H20.25C20.6642 7 21 7.33579 21 7.75V16.25C21 17.7688 19.7688 19 18.25 19H8.75C7.23122 19 6 17.7688 6 16.25V7.75ZM10 12.46V15.5C10 15.7762 10.2239 16 10.5 16H12.25C12.3881 16 12.5 15.8881 12.5 15.75V14.5C12.5 14.2239 12.7239 14 13 14H14C14.2761 14 14.5 14.2239 14.5 14.5V15.75C14.5 15.8881 14.6119 16 14.75 16H16.5C16.7761 16 17 15.7762 17 15.5V12.46C17 12.168 16.8724 11.8907 16.6508 11.7007L13.8254 9.27894C13.6382 9.11845 13.3618 9.11845 13.1746 9.27894L10.3492 11.7007C10.1276 11.8907 10 12.168 10 12.46Z" fill="#212121"/>
</svg>

<svg xmlns="http://www.w3.org/2000/svg" width="24" height="24"><path d="M3 4a1 1 0 1 1 2 0h16a1 1 0 1 1 0 2H5v15.5a.5.5 0 0 1-.5.5h-1a.5.5 0 0 1-.5-.5V4Zm3 3.75A.75.75 0 0 1 6.75 7h13.5a.75.75 0 0 1 .75.75v8.5A2.75 2.75 0 0 1 18.25 19h-9.5A2.75 2.75 0 0 1 6 16.25v-8.5Zm4 4.71v3.04a.5.5 0 0 0 .5.5h1.75a.25.25 0 0 0 .25-.25V14.5a.5.5 0 0 1 .5-.5h1a.5.5 0 0 1 .5.5v1.25c0 .138.112.25.25.25h1.75a.5.5 0 0 0 .5-.5v-3.04a1 1 0 0 0-.35-.76l-2.824-2.42a.5.5 0 0 0-.65 0l-2.827 2.42a1 1 0 0 0-.349.759Z"/></svg>
